X:1
T:Title
%%score { ( 1 3 ) | ( 2 4 ) }
L:1/8
Q:1/4=100
M:4/4
K:Bb
V:1 treble nm="Grand Piano"
V:3 treble 
V:2 bass 
V:4 bass 
V:1
 [DF]2 [B,D][CE] [DF]2 [FB]2 | .c2 z2 z4 | [DF]2 [B,D][CE] [DF]2 [EG]2 | [DF]2 [CE]D C4 | %4
w: William~W.~Bentley * * * *||||
 [DF]2 [B,D][CE] [DF]2 [FB]2 | .c2 z2 z4 | FGAB c2 e2 | d2 c2 [DB]4 | c2 c2 d2 c2 | z2 .B2 z4 | %10
w: ||||||
 [Fc]2 [Fc]2 [Fd]2 F-[DFB] | [CFA]2 [B,=EG]2 [A,F]4 | [DF]2 [DF][EG] [DF]2 [DB]2 | %13
w: |||
 [EG]2 [GB][EG] [DF]2 [B,D]2 | [DB][Fc]de [Ff]2 [Fd]B | c2 dc [DB]4 | z4 c2 .B2 | %17
w: ||||
 [Fd]2 dc [Fd]2 f2 | c2 c2 c2 Bc | z4 c2[K:bass] z2 | [DF]2 [DF][EG] [DF]2 [DB]2 | %21
w: ||||
 G2 GA [B,GB]2 [B,EG]2 | z4 z2 .c2 | c2 BA [DB]4 |] %24
w: |||
V:2
 [B,,B,]2 [B,,F,]2 [B,,B,]2 [D,B,]2 | [E,B,]2 [E,B,]2 [B,,B,]2 [B,,B,]2 | %2
 [B,,B,]2 [B,,F,]2 [B,,B,]2 [B,,B,]2 | [B,,B,]2 z B, [F,A,]4 | [B,,B,]2 [B,,F,]2 [B,,B,]2 [D,B,]2 | %5
 [E,B,]2 [E,B,]2 [B,,B,]2 [B,,B,]2 | z E[CE][B,D] [F,A,F]2 [F,A,F]2 | [F,B,F]2 [F,A,E]2 [B,,B,]4 | %8
 [F,A,F]2 [F,A,F]2 [F,B,F]2 [F,A,F]2 | [B,,B,]2 [D,B,][F,A,] [B,F]2 [D,B,]2 | %10
 [F,A,]2 [F,A,]2 [B,,B,]2 A,,B,, | C,2 C,2 F,4 | [B,,B,]2 [B,,B,]2 [B,,B,]2 [B,,B,]2 | %13
 [E,B,]2 [E,B,]2 [B,,B,]2 [B,,F,]2 | [B,,B,]2 [B,,B,][C,A,] [D,B,]2 z D | %15
 [F,A,F]2 [B,F][A,E] [B,,B,]4 | [F,A,F]2 [F,A,F]2 .[F,A,F]2 [D,B,][C,A,] | %17
 [B,,B,]2 [B,,B,]2 [B,,B,]2 [B,,DF]2 | [F,A,F]2 [F,A,F]2 [F,A,F]2 [D,B,][F,A,] | %19
 [B,F]2 [F,A,F]2 [F,A,F]2 z2 | [B,,B,]2 [B,,B,]2 [B,,B,]2 [B,,B,]2 | [E,B,E]2 EF E,2 E,2 | %22
 C,2 [B,,B,]2 [B,,B,]2 [C,A,][D,B,] | [E,G,E]2 DC [B,,F,]4 |] %24
V:3
 x8 | G-[GB][FA][EG] [EG]2 [DF]2 | x8 | x8 | x8 | G-[GB][FA][EG] [EG]2 [DF]2 | x8 | x8 | x8 | %9
 [DB]2 F-[Fc] d2 [FB]2 | z4 z2 .[Cc]2 | x8 | x8 | x8 | z2 F2 z4 | x8 | c2 c2 z E,F-[Fc] | %17
 z2 F2 z4 | z4 z2 F2 | d2 c2 z[K:bass] E,D,C, | x8 | x8 | [B,DF]2 [DB][Ec] [Fd]2 F-[FB] | x8 |] %24
V:4
 x8 | x8 | x8 | z2 [B,,F,]2 z4 | x8 | x8 | [F,A,]2 F,2 z4 | x8 | x8 | x8 | x8 | x8 | x8 | x8 | %14
 z4 z2 [B,,B,]2 | z2 F,2 z4 | x8 | x8 | x8 | x8 | x8 | z2 [E,B,]2 z4 | x8 | z2 F,2 z4 |] %24

